public/icons/fmedium.svg

<svg width="24" height="25" viewBox="0 0 24 25" fill="none" xmlns="http://www.w3.org/2000/svg">
<g clip-path="url(#clip0_1116_92)">
<path d="M13.7996 12.5002C13.7996 16.1345 10.8454 19.0815 7.19939 19.0815C6.33397 19.0826 5.4768 18.9133 4.67682 18.5832C3.87684 18.2531 3.14972 17.7686 2.53696 17.1575C1.92421 16.5464 1.43782 15.8205 1.10558 15.0214C0.773334 14.2223 0.601738 13.3656 0.600586 12.5002C0.600586 8.86443 3.55484 5.91895 7.19939 5.91895C8.06492 5.91761 8.92225 6.08678 9.7224 6.41681C10.5225 6.74684 11.2498 7.23126 11.8628 7.8424C12.4757 8.45355 12.9622 9.17944 13.2945 9.97864C13.6269 10.7778 13.7985 11.6347 13.7996 12.5002ZM21.039 12.5002C21.039 15.9225 19.5619 18.6954 17.7396 18.6954C15.9173 18.6954 14.4402 15.921 14.4402 12.5002C14.4402 9.07795 15.9173 6.30505 17.7396 6.30505C19.5619 6.30505 21.039 9.07942 21.039 12.5002ZM24.0006 12.5002C24.0006 15.5656 23.4814 18.0504 22.8394 18.0504C22.1988 18.0504 21.6796 15.5641 21.6796 12.5002C21.6796 9.4348 22.1988 6.95002 22.8408 6.95002C23.4814 6.95002 24.0006 9.4348 24.0006 12.5002Z" fill="white"/>
</g>
<defs>
<clipPath id="clip0_1116_92">
<rect width="23.4" height="23.4" fill="white" transform="translate(0.599609 0.799805)"/>
</clipPath>
</defs>
</svg>

<svg width="24" height="25" fill="none" xmlns="http://www.w3.org/2000/svg"><g clip-path="url(#a)"><path d="M13.8 12.5c0 3.634-2.955 6.581-6.6 6.581a6.591 6.591 0 0 1-6.6-6.58c0-3.637 2.955-6.582 6.6-6.582a6.59 6.59 0 0 1 6.6 6.581zm7.239 0c0 3.422-1.477 6.195-3.3 6.195-1.822 0-3.299-2.774-3.299-6.195 0-3.422 1.477-6.195 3.3-6.195 1.822 0 3.299 2.774 3.299 6.195zm2.962 0c0 3.066-.52 5.55-1.162 5.55-.64 0-1.16-2.486-1.16-5.55 0-3.065.52-5.55 1.162-5.55.64 0 1.16 2.485 1.16 5.55z" fill="#fff"/></g><defs><clipPath id="a"><path fill="#fff" transform="translate(.6 .8)" d="M0 0h23.4v23.4H0z"/></clipPath></defs></svg>
